!!!CDT:
!!!PTL: Il decimoquinto libro de' madrigali à cinque voci
!!!PPP: Palermo
!!!PPR: Giovan Battista Maringo
!!!PDT: 1619
!!!RISM: I 15
!!!rime:
!!!AGN: Madrigal
!!!SCT: Tsg12077b
!!!SCA: Tsg12077b
!!!voices:
!!!COM: Il Verso, Antonio
!!!OTL: Vivrò fra i miei tormenti e fra le cure
**kern	**text	**kern	**text	**kern	**text	**kern	**text	**kern	**text
*part5	*part5	*part4	*part4	*part3	*part3	*part2	*part2	*part1	*part1
*staff5	*staff5	*staff4	*staff4	*staff3	*staff3	*staff2	*staff2	*staff1	*staff1
*I"Basso	*	*I"Quinto	*	*I"Tenore	*	*I"Alto	*	*I"Canto	*
*I'B	*	*I'V	*	*I'T	*	*I'A	*	*I'C	*
*oclefF4	*	*oclefC4	*	*oclefC4	*	*oclefC3	*	*oclefC1	*
*clefF4	*	*clefGv2	*	*clefGv2	*	*clefG2	*	*clefG2	*
*k[]	*	*k[]	*	*k[]	*	*k[]	*	*k[]	*
*omet(C)	*	*omet(C)	*	*omet(C)	*	*omet(C)	*	*omet(C)	*
*M4/2	*	*M4/2	*	*M4/2	*	*M4/2	*	*M4/2	*
=1	=1	=1	=1	=1	=1	=1	=1	=1	=1
!	!	!	!	!	!	!	!	!LO:TX:a:t=Terza parte.	!
0r	.	2d	Vi-	2G	Vi-	2g	Vi-	2b	Vi-
.	.	2e	-vrò	4.c	-vrò	4.g	-vrò	4.cc	-vrò
.	.	.	.	8c	fra i	8g	fra i	8cc	fra i
.	.	2r	.	4c	miei	4g	miei	4cc	miei
.	.	.	.	4c	tor-	4g	tor-	4cc	tor-
.	.	4r	.	[2d	-men-	[2f	-men-	[2a	-men-
.	.	4d	fra i	.	.	.	.	.	.
=2	=2	=2	=2	=2	=2	=2	=2	=2	=2
1r	.	8d	miei	4d]	.	4f]	.	4a]	.
.	.	8d	tor-	.	.	.	.	.	.
.	.	4d	-men-	2B	-ti e	4d	-ti e	2dd	-ti e
.	.	4d	-ti e	.	.	4.g	le	.	.
.	.	8e	le	8c	le	.	.	8g	le
.	.	8f	mie	8F	mie	8a	mi	8cc	mie
2r	.	2d	cu-	2G	cu-	2g	cu-	2b	cu-
4r	.	2e	-re,	2C	-re,	4g	-re,	2cc	-re,
4c	Mie-	.	.	.	.	4g	Mie	.	.
=3	=3	=3	=3	=3	=3	=3	=3	=3	=3
4G	-giu-	4r	.	0r	.	4b	giu-	4r	.
4B-X	-ste	4d	Mie	.	.	4g	-ste	4dd	Mie
8A	fu-	8e	giu-	.	.	8a	fu-	4.cc	giu-
8A	-rie,	8e	-ste	.	.	8a	-rie,	.	.
8A	for-	8e	fu-	.	.	8a	for-	.	.
8A	-sen-	8e	-rie,	.	.	8a	-sen-	8cc	-ste
4c	-na-	4e	for-	.	.	4.g	-na-	4cc	fu-
4G	-to er-	4d	-sen-	.	.	.	.	4b	-rie,
.	.	.	.	.	.	8f	.	.	.
8AL	-ran-	4c	-na-	.	.	4e	.	4a	for-
8G	.	.	.	.	.	.	.	.	.
8F	.	4A	-to,	.	.	4d	-to,	4a	-sen-
8EJ	.	.	.	.	.	.	.	.	.
=4	=4	=4	=4	=4	=4	=4	=4	=4	=4
8DL	.	4A	for-	0r	.	4.f	for-	4.dd	-na-
8E	.	.	.	.	.	.	.	.	.
8F	.	4A	-sen-	.	.	.	.	.	.
8DJ	.	.	.	.	.	8f	-sen-	8dd	-to er-
4E	.	4G	-na-	.	.	4g	-na-	4b	-ran-
8DL	.	4A	-to er-	.	.	8fL	.	4cc	.
8CJ	.	.	.	.	.	8eJ	.	.	.
4BBnXi	.	4d	-ran-	.	.	4d	.	8bL	.
.	.	.	.	.	.	.	.	8aJ	.
4C	.	2c	.	.	.	4e	-to er-	4g	.
2GG	.	.	.	.	.	2d	-ran-	2g	.
.	.	4B	.	.	.	.	.	.	.
=5	=5	=5	=5	=5	=5	=5	=5	=5	=5
1C	-te.	2c	-te.	8r	.	8e	-te.	1g	-te.
.	.	.	.	8G	Pa-	8g	Pa-	.	.
.	.	.	.	8A	-ven-	8f	-ven-	.	.
.	.	.	.	8B	-te-	8d	-te-	.	.
.	.	2r	.	2c	-rò,	2e	-rò,	.	.
8r	.	1r	.	8r	.	8r	.	8r	.
8C	Pa-	.	.	8e	Pa-	8g	Pa-	8e	Pa-
8D	-ven-	.	.	8d	-ven-	8f	-ven-	8f	-ven-
8E	-te-	.	.	8c	-te-	8e	-te-	8g	-te-
2F	-rò	.	.	2A	-rò	4d	-rò	2a	-rò,
.	.	.	.	.	.	[4d	l'om-	.	.
=6	=6	=6	=6	=6	=6	=6	=6	=6	=6
2.G	l'om-	8r	.	2B	l'om-	4d]	.	8r	.
.	.	8B	Pa-	.	.	.	.	8g	Pa-
.	.	8B	-ven-	.	.	8d	-bre	8b	-ven-
.	.	8A	-te-	.	.	8d	so-	8cc	-te-
.	.	4B	-rò	4B	-bre	2d	-lin-	4dd	-rò
8G	-bre	2B	l'om-	4B	so-	.	.	2b	l'om-
8G	so-	.	.	.	.	.	.	.	.
4E	-lin-	.	.	2G	-lin-	2e	-ghe e	.	.
4E	-ghe e	8B	-bre	.	.	.	.	8b	-bre
.	.	8B	so-	.	.	.	.	8b	so-
2BB	scu-	4.B	-lin-	2F#X	-ghe e	2d#X	scu-	4b	-lin-
.	.	.	.	.	.	.	.	4b	-ghe e
.	.	8B	-ghe e	.	.	.	.	.	.
=7	=7	=7	=7	=7	=7	=7	=7	=7	=7
1BB	-re	2B	scu-	2F#X	scu-	1d#X	-re	2f#X	scu-
.	.	2B	-re	2F#X	-re	.	.	2f#X	-re
8r	.	8r	.	8r	.	2r	.	1r	.
8BB	Che'l	8d	Che'l	8d	Che'l	.	.	.	.
8C	pri-	8e	pri-	8c	pri-	.	.	.	.
8D	-mo hor-	8f	-mo hor-	8A	-mo hor-	.	.	.	.
2E	-ror	8g	-ror	[2G	-ror	8r	.	.	.
.	.	8e	mi	.	.	8g	Che'l	.	.
.	.	8d	re-	.	.	8f	pri-	.	.
.	.	8c	-che-	.	.	8e	-mo hor-	.	.
=8	=8	=8	=8	=8	=8	=8	=8	=8	=8
0r	.	4B	-ran-	8G]	.	8dnXi	-ror	1r	.
.	.	.	.	8G	mi	8B	mi	.	.
.	.	4A	-no a-	8A	re-	8c	re-	.	.
.	.	.	.	8B	-che-	8d	-che-	.	.
.	.	2A	-van-	8c	-ran-	4.e	-ran-	.	.
.	.	.	.	8A	-no a-	.	.	.	.
.	.	.	.	2c	-van-	.	.	.	.
.	.	.	.	.	.	8c	-no a-	.	.
.	.	2G	-te,	.	.	8dL	-van-	4r	.
.	.	.	.	.	.	16e	.	.	.
.	.	.	.	.	.	16fJ	.	.	.
.	.	.	.	4B	.	2g	.	4g	Che'l
.	.	8r	.	2A	.	.	.	8a	pri-
.	.	8c	Che'l	.	.	.	.	8b	-mo hor-
.	.	8c	pri-	.	.	4f#X	.	[4cc	-ror
.	.	8c	-mo hor-	.	.	.	.	.	.
=9	=9	=9	=9	=9	=9	=9	=9	=9	=9
2r	.	2d	-ror,	2G	-te,	2g	-te,	4cc]	.
.	.	.	.	.	.	.	.	4b	mi
8r	.	2r	.	8r	.	4r	.	4g	re-
8G	Che'l	.	.	8B	mi	.	.	.	.
8F	pri-	.	.	8c	re-	4fnXi	Che'l	4a	-che-
8E	-mo hor-	.	.	8c	-che-	.	.	.	.
8D	-ror	8r	.	2d	-ran-	8a	pri-	8fL	-ran-
8BB	mi	8d	Che'l	.	.	8g	-mo hor-	8g	.
8C	re-	8c	pri-	.	.	8g	-ror	8e	.
8D	-che-	8A	-mo hor-	.	.	8f	mi	8fJ	.
4E	-ran-	2G	-ror,	4B	-no a-	8e	re-	4g	.
.	.	.	.	.	.	8e	-che-	.	.
4BB	-no a-	.	.	[4d	-van-	8g	-ran-	4g	-no a-
.	.	.	.	.	.	8g	-no a-	.	.
=10	=10	=10	=10	=10	=10	=10	=10	=10	=10
1D	-van-	8r	.	1d]	.	4f#X	-van-	1a	-van-
.	.	8d	Che'l	.	.	.	.	.	.
.	.	8c	pri-	.	.	2g	.	.	.
.	.	8B	-mo hor-	.	.	.	.	.	.
.	.	8A	-or	.	.	.	.	.	.
.	.	8D	mi	.	.	.	.	.	.
.	.	8d	re-	.	.	4f#X	.	.	.
.	.	8d	-che-	.	.	.	.	.	.
1GG	-te;	8dL	-ran-	1d	-te;	1g	-te;	2b	-te;
.	.	8c	.	.	.	.	.	.	.
.	.	8B	.	.	.	.	.	.	.
.	.	8AJ	.	.	.	.	.	.	.
.	.	4G	.	.	.	.	.	[2dd	E
.	.	4G	-no a-	.	.	.	.	.	.
=11	=11	=11	=11	=11	=11	=11	=11	=11	=11
0r	.	2D	-van-	2r	.	2r	.	4dd]	.
.	.	.	.	.	.	.	.	4a	del
.	.	2D	-te;	2.d	E	2.fnXi	E	2.a	sol
.	.	2r	.	.	.	.	.	.	.
.	.	.	.	4A	del	4e	del	8a	che
.	.	.	.	.	.	.	.	8a	sco-
.	.	4r	.	[2G	sol	[2g	sol	4b	-prì
.	.	[4B	E	.	.	.	.	[4dd	le
=12	=12	=12	=12	=12	=12	=12	=12	=12	=12
0r	.	4B]	.	4G]	.	4g]	.	4dd]	.
.	.	4G	del	8E	che	2g	che	8g	mie
.	.	.	.	8E	sco-	.	.	8g	sven-
.	.	4d	sol	2D	-prì	.	.	2a	-tu-
.	.	8A	che	.	.	4f#X	sco-	.	.
.	.	8A	sco-	.	.	.	.	.	.
.	.	2B	-prì	4G	le	2g	-prì	2.g	-re,
.	.	.	.	2B	mie	.	.	.	.
.	.	2r	.	.	.	4d	le	.	.
.	.	.	.	4c#X	sven-	[4e	mie	[4a	le
=13	=13	=13	=13	=13	=13	=13	=13	=13	=13
1r	.	1r	.	2d	-tu-	4e]	.	4a]	.
.	.	.	.	.	.	4d	sven-	2b	mie
.	.	.	.	2A	-re,	8eL	-tu-	.	.
.	.	.	.	.	.	8AJ	.	.	.
.	.	.	.	.	.	2a	.	4a	sven-
2r	.	2r	.	2r	.	.	.	2b	-tu-
.	.	.	.	.	.	4g#X	.	.	.
4r	.	4r	.	4r	.	2a	-re,	2a	-re,
4A	A	4c	A	4e	A	.	.	.	.
=14	=14	=14	=14	=14	=14	=14	=14	=14	=14
4F	schi-	8c	schi-	4f	schi-	4r	.	4r	.
.	.	8c	-vo ed	.	.	.	.	.	.
4F	-vo ed	8c	in	4f	-vo ed	4A	A	4cc	A
.	.	8c	hor-	.	.	.	.	.	.
8F	in	2f	-ror	8f	in	8A	schi-	8a	schi-
8F	hor-	.	.	8f	hor-	8A	-vo ed	8a	-vo ed
2F	-ror	.	.	2f	-ror	8A	in	8a	in
.	.	.	.	.	.	8A	hor-	8a	hor-
.	.	2c	Ha-	.	.	4A	-ror	4a	-ror
4C	ha-	.	.	4e	ha-	4GnXi	ha-	4cc	ha-
4D	-vrò il	4F	-vrò il	4d	-vrò il	4d	-vrò il	4a	-vrò il
4BB	sem-	4D	sem-	4d	sem-	[4G	sem-	4dd	sem-
=15	=15	=15	=15	=15	=15	=15	=15	=15	=15
2C	-bian-	2G	-bian-	2e	-bian-	4G]	.	2cc	-bian-
.	.	.	.	.	.	2g	-bian-	.	.
2GG	-te.	2G	-te.	2d	-te.	.	.	2b	-te.
.	.	.	.	.	.	4g	-te.	.	.
2r	.	4r	.	4r	.	4r	.	4r	.
.	.	8d	Te-	8G	Te-	8g	Te-	8b	Te-
.	.	8d	-me-	8G	-me-	8g	-me-	8b	-me-
4r	.	4d	-rò	2G	-rò	4g	-rò	4b	-rò
8C	Te-	8c	me	.	.	8e	me	[4cc	me
8C	-me-	8c	me-	.	.	8e	me-	.	.
=16	=16	=16	=16	=16	=16	=16	=16	=16	=16
2C	-rò	4G	-de-	2c	me	2.e	-de-	4cc]	.
.	.	4G	-smo,	.	.	.	.	4g	me-
8E	me	2r	.	2B	me-	.	.	2g	-de-
8F	me-	.	.	.	.	.	.	.	.
2G	-de-	.	.	.	.	2d	-smo, e	.	.
.	.	1r	.	4d	-de-	.	.	4g	-smo,
4D	-smo, e	.	.	4d	-smo,	4f	da	8dd	Te-
.	.	.	.	.	.	.	.	8dd	-me-
4F	da	.	.	4A	e	4a	me	4cc	-rò
4G	me	.	.	8B	da	[4g	stes-	8b	me
.	.	.	.	8d	me	.	.	8g	me-
=17	=17	=17	=17	=17	=17	=17	=17	=17	=17
2A	stes-	2r	.	2c	stes-	4g]	.	4.cc	-de-
.	.	.	.	.	.	4f#X	.	.	.
.	.	.	.	.	.	.	.	8a	.
2G	-so	8r	.	2d	-so	2g	-so	8bL	.
.	.	8d	Sem-	.	.	.	.	8ccJ	.
.	.	8d	-pre	.	.	.	.	2dd	.
.	.	8c	fug-	.	.	.	.	.	.
8r	.	4.B	-gen-	2r	.	8r	.	.	.
8G	Sem-	.	.	.	.	8d	Sem-	.	.
8G	-pre	.	.	.	.	8d	-pre	4dd	-smo,
8F	fug-	8A	.	.	.	8d	fug-	.	.
2E	-gen-	4G	.	8r	.	4e	-gen-	2r	.
.	.	.	.	8G	Sem-	.	.	.	.
.	.	4C	-do,	8G	-pre	4g	-do ha-	.	.
.	.	.	.	8G	fug-	.	.	.	.
=18	=18	=18	=18	=18	=18	=18	=18	=18	=18
2D	-do,	2r	.	4A	-gen-	4fnXi	-vrò in	8r	.
.	.	.	.	.	.	.	.	8dd	Sem-
.	.	.	.	4D	-do,	4f	o-	8dd	-pre
.	.	.	.	.	.	.	.	8cc	fug-
8r	.	8r	.	2r	.	4d	-dio	4.b	-gen-
8G	Sem-	8B	Sem-	.	.	.	.	.	.
8G	-pre	8B	-pre	.	.	4g	me	.	.
8A	fug-	8c	fug-	.	.	.	.	8a	-do, ha-
8B	-gen-	8d	-gen-	2r	.	4g	stes-	4.g	-vrò in
8c	-do, ha-	8e	-do, ha-	.	.	.	.	.	.
8G	-vrò in	8d	-vrò in	.	.	4g	-so,	.	.
8A	o-	8c	o-	.	.	.	.	8e	o-
4D	-dio	4d	-dio	8r	.	8r	.	4f	-dio
.	.	.	.	8A	Sem-	8d	Sem-	.	.
4G	me	4d	me	8B	-pre	8d	-pre	4g	me-
.	.	.	.	8B	fug-	8e	fug-	.	.
=19	=19	=19	=19	=19	=19	=19	=19	=19	=19
0D	stes-	4d	stes-	8A	-gen-	8f	-gen-	2a	-stes-
.	.	.	.	8B	-do, ha-	8d	-do ha-	.	.
.	.	4D	-so,	8A	-vrò in	8f	-vrò in	.	.
.	.	.	.	8G	o-	8g	o-	.	.
.	.	4r	.	4A	-dio	4.a	-dio	2a	-so,
.	.	4A	in	4D	me	.	.	.	.
.	.	.	.	.	.	8g	me	.	.
.	.	4A	o-	1A	stes-	4f#X	stes-	4r	.
.	.	8D	-dio	.	.	2g	.	4dd	me
.	.	8D	me	.	.	.	.	.	.
.	.	2d	stes-	.	.	.	.	2dd	stes-
.	.	.	.	.	.	4f#X	.	.	.
=20	=20	=20	=20	=20	=20	=20	=20	=20	=20
0GGl	-so.	0dl	-so.	0Gl	-so.	0gl	-so.	0bl	-so.
==	==	==	==	==	==	==	==	==	==
*-	*-	*-	*-	*-	*-	*-	*-	*-	*-
!!!system-decoration: [*]
!!!RDF**kern: i = editorial accidental
!!!RDF**kern: l = terminal long
!!!ENC: Emiliano Ricciardi
!!!END:
!!!EED: Ricciardi, Emiliano
!!!EEV: 2020/07/23
!!!YEC: Copyright 2018 Emiliano Ricciardi, All Rights Reserved
!!!ONB: Translated from MusicXML on 2020/07/23
!!@@BEGIN:	VERSEDATA
!!@CATALOGNUM:	Tsg12077
!!@LAST_MODIFIED: 2020/07/18
!!@TITLE:		Vivrò fra i miei tormenti e fra le cure
!!@CANTO:		XII
!!@OTTAVA:	77
!!@MANUSRC:	G-Al, G-Am, G-Au, G-Br<sub>1</sub>, G-Br<sub>2</sub>, G-Cv, G-Es<sub>1</sub>, G-Es<sub>2</sub>, G-Es<sub>3</sub>, G-F, G-Fr, G-Fr<sub>1</sub>, G-Fr<sub>2</sub>, G-Mc, G-Mc<sub>1</sub>, G-Mg, G-Mr, G-Mt, G-N, G-Ol
!!@PRINTSRC:	G-1580CM, G-1581B, G-1581CV, G-1581R, G-1581MR, G-1581P, G-1581V, G-1581V<sub>bis</sub>, G-1582C, G-1582M, G-1582MC, G-1582P, G-1582SC, G-1582SC<sub>bis</sub>, G-1583S, G-1584O, G-1584S, G-1585C, G-1585S, G-1588S, G-1589S, G-1590B, G-1590S, G-1592S, G-1593S, G-1594C, G-1595C, G-1597C, G-1598C, G-1599C, G-1600C, G-1600S, G-1601C, G-1601R, G-1602C, G-1604C, G-1604Cl, G-1604F, G-1604P, G-1606B, G-1606B<sub>bis</sub>, G-1606L, G-1607ZR, G-1608DP, G-1609GC, G-1610M, G-1611S, G-1611V, G-1612P, G-1613M, G-1613P, G-1613V, G-1615P, G-1616M, G-1617P, G-1619B, G-1619V, G-1620M, G-1620S, G-1621R, G-1624I, G-1624MT, G-1625C, G-1625S, G-1625SS, G-1626C, G-1626Co, G-1627M, G-1628T, G-1628Tu, G-1630L, G-1630T, G-1632FT, G-1639CF, G-1642M, G-1643I, G-1644P, G-1644S
!!@@BEGIN:	VERSES
!!@ABOUTIT:
!!@ABOUTEN:
!!@EDITOR:	Angelo Solerti
!!@EDITION_TITLE: Gerusalemme liberata. Poema eroico di Torquato Tasso. Edizione critica sui manoscritti e le prime stampe.
!!@EDITION_LOC:	Florence
!!@EDITION_PUB:	G. Barbera
!!@EDITION_DATE:  1895
!!@EDITION_VOL:
!!@EDITION_PAGE:
!!@TRANSLATOR:	Emiliano Ricciardi and Amyrose McCue Gill
!!@VERSE:
!!	Vivrò fra i miei tormenti e fra le cure,
!!	Mie giuste furie, forsennato errante.
!!	Paventerò l’ombre solinghe e scure
!!	Che ’l primo error mi recheranno innante;
!!	E del Sol, che scoprì le mie sventure,
!!	A schivo ed in orrore avrò il sembiante.
!!	Temerò me medesmo, e da me stesso
!!	Sempre fuggendo, avrò me sempre appresso.
!!@MVERSE_DATE: 20230824
!!@MVERSE:
!!	Viv|rò|| fra_i miei tor|men||ti_e fra le cu||re,	=a*
!!	Mie giu||ste fu||rie, for|sen|na||to_er|ran||te.	=b
!!	Pa|ven|te|rò|| l’om||bre so|lin||ghe_e scu||re		=a
!!	Che_’l pri||mo_er|ror|| mi re|che|ran||no_in|nan||te;	=b
!!	E del Sol, che sco|prì|| le mie sven|tu||re,		=a
!!	A schi||vo_ed in or|ro||re_a|vrò||_il sem|bian||te.	=b
!!	Te|me|rò|| me me|de||smo,_e da me stes||so		=c*
!!	Sem||pre fug|gen||do,_a|vrò|| me sem||pre_ap|pres||so.	=c
!!@TVERSE:
!!	I will live among my torments, and among the cares
!!	My righteous furies, raving, wandering.
!!	I will dread the shadows, solitary and dim,
!!	Which my earlier error will cast before me;
!!	And in the Sun, which revealed my misfortunes,
!!	Shying away from and in horror of my [own] likeness will I [be].
!!	I will fear me, myself, and from myself
!!	Always fleeing, will have me always near.
!!@@END:		VERSES
!!@OTHER_CRIT_ED:  Torquato Tasso, <i>Gerusalemme liberata</i>, ed. Lanfranco Caretti, 2 vols. (Bari: Laterza, 1967).
!!@ATTRIBUTION_ABOUT:
!!@DATING:	mid-1560s through 1570s
!!@DEDICATEE:	Duke Alfonso II d'Este
!!@COMMENTARY:
!!@@END:		VERSEDATA
!!@@BEGIN: SETTING
!!@CATALOGNUM:	Tsg12077b
!!@CANTO:		XII
!!@OTTAVA:	77
!!@TITLE: Vivrò fra i miei tormenti e fra le cure
!!@SETTINGTITLE: Vivrò fra i miei tormenti e le mie cure
!!@COMPOSER:	Il Verso, Antonio
!!@PARTS:		3 of 3
!!@PRINCEPSTITLE:	Il decimoquinto libro de' madrigali à cinque voci
!!@PRINCEPSLOC:	Palermo
!!@NORMLOC:	Palermo
!!@NORMPUB:	Giovan Battista Maringo
!!@NORMPUBSHORT:	Maringo
!!@PRINCEPSPUB:	Giovan Battista Maringo
!!@PRINCEPSYEAR:	1619
!!@PRINCEPSRISM:	I 15
!!@OVOICES:	5
!!@EXTANTVOICES:	5
!!@OMENSURATION:	C
!!@OCLEFS:	C1,C3,C4,C4,F4
!!@OTIME:		
!!@OKEYSIG:	-
!!@FINAL:		G
!!@TIMPEDITOR:	Ricciardi, Emiliano
!!@REPRINTS:	
!!@@END: SETTING
